X:1
T:SIX IRISH FOLKSONGS
T:
T:OH! BREATHE NOT HIS NAME
T:(Air - "The brown maid")
T:Charles Villiers Stanford (1854-1924)
T:Thomas More (1779-1852)
T:SIX IRISH FOLKSONGS OH! BREATHE NOT HIS NAME (Air - "The brown maid")
T:Copyright © CPDL
T:(Op. 78)
T:Copyright © CPDL
T:Copyright © CPDL
T:Copyright © CPDL
C:Charles Villiers Stanford (1854-1924)
Z:Thomas More (1779-1852)
Z:Copyright © CPDL
%%score [ 1 2 3 4 ]
L:1/8
Q:1/4=60
M:4/4
K:F
V:1 treble nm="Soprano" snm="S."
V:2 treble nm="Alto" snm="A."
V:3 treble-8 transpose=-12 nm="Tenor" snm="T."
V:4 bass nm="Bass" snm="B."
V:1
!mp!"^Adagio"!>(! (f!>)!e) | (dc)Ac (!>!BA)"^’"G!pp!F | (G>A) FF F3 F | (!>!BA)GF!<(! (AB)c!<)!c | %4
w: Oh! *|breathe * not his name, * let it|sleep * in the shade, Where|cold * and un- hon- * our'd his|
 (d/e/f)!>(! ed!>)!"^’" c2!p! !>!c2 | (!>!BA)GF !>!F2 G>A | (cf)ef!<(! d4-!<)! | %7
w: rel- * * ics are laid: Sad,|si- * lent, and dark be the|tears * that we shed,|
[M:3/4] d2 f3!>(! e |[M:4/4] (d!>)!c) A z/ c/ (BA)GF | (DF) F>G F4- | F4 z4 | %11
w: _ As the|night- * dew that falls * on the|grass * o'er his head,|_|
"^rall."!pp! z2 .F.F !fermata!F2 || z2 | z4 z2!>(! f>!>)!e | (dc)Ac (BA)!pp!GF | (G>A) FF F4- | %16
w: o'er his head.||But the|night- * dew that falls, * tho' in|si- * lence it weeps,|
 F4 z4 | z4 z2 z!mf! F | (BA)!<(!GF (A>B) c!<)!c |!f! (de f2)!>(! e2 d2!>)! | c4- c!<(! c2!<)! c | %21
w: _|Shall|bright- * en with ver- * dure the|grave _ _ where he|sleeps; _ And the|
 (BA)GF F4 | z2!pp! GA (cf)ef |[M:2/4]!<(! d4- |[M:3/4] d2!<)! (f3 e) | %25
w: tear * that we shed,|though in se- * cret it|rolls,|_ Shall _|
[M:4/4] (dc)A"^rall."c (BA)GF |!>(! (D2!>)! F2) z4 | z2 F2 z F2 G | !fermata!F6 || %29
w: long * keep his mem- * o- ry|green, *|green in our|souls.|
V:2
!mp!!>(! F2!>)! | F2 FF"^’" !>!F2!pp! DD | (D>E) DD (DC) (B,A,) | (B,C) (D/E/)F!<(! F2 E!<)!F | %4
w: Oh!|breathe not his name, let it|sleep * in the shade, * Where *|cold * and * un- hon- our'd his|
 A2!>(! AA!>)! A2"^’" z2 | z2!p! !>!D2 (!>!DC) B,>A, | A,2 CC (D!<(!B)A!<)!B | %7
w: rel- ics we laid:|Sad, si- * lent, and|dark be the tears * that we|
[M:3/4] (AG) (DE F)!>(!G |[M:4/4] (G!>)!A) A z/ A/ F2 DD | D2 D>D C4- | C4!<(! F2 F!<)!"^rall."G | %11
w: shed, * As _ _ the|night- * dew that falls on the|grass o'er his head,|_ falls on the|
!>(! (BA)!>)!.F.D C2 || z2 | z2!>(! F>E!>)! (DC)A,C | (DE F4) z2 | z2 z!pp! F (E>F) DD | %16
w: grass * o'er his head.||But the night- * dew that|falls, _ _|in si- * lence it|
 (D2 C4) z2 | z2 z!mf! F (BA)GF |!<(! (dc)BA AG!<)! F2 |!f! (FG A4)!>(! A^G!>)! | %20
w: weeps, *|Shall bright- * en, shall|bright- * en with ver- dure the|grave _ _ where he|
 A2 =G>A!<(!!<(! B3!<)!!<)! A | (GF)DD D2 FA | (c!>(!A)GF!>)! F2 AA |[M:2/4] (A G2!<(! ^F | %24
w: sleeps, And the tear, the|tear * that we shed, though in|se- * cret, in se- cret it|rolls, _ _|
[M:3/4] AG)!<)! (DEFG) |[M:4/4] (GA)A"^rall."A F2 DD |!>(! D4!>)! z2 D2- | D2 C4 B,2 | %28
w: _ _ Shall _ _ _|long * keep his mem- o- ry|green, green|_ in our|
 !fermata!C6 || %29
w: souls.|
V:3
!mp!!>(! (d!>)!c) | (BA)FA (!>!d"^’"c)!pp!BA | (B>A) AB (BA) (GF) | (!>!DF)BA!<(! d2 c!<)!A | %4
w: Oh! *|breathe * not his name, * let it|sleep * in the shade, * Where *|cold * and un- hon- our'd his|
 (A!>(!d)ef!>)! e2"^’" z2 | z2!p! !>!B2 (!>!BA) G>F | F2 FF (F!<(!d)c!<)!d | %7
w: rel- * ics are laid:|Sad, si- * lent, and|dark be the tears * that we|
[M:3/4] (cB) (Bc d)!>(!e |[M:4/4] (e!>)!f) e z/ e/ (dc)BA | (BA) B>B A4- | %10
w: shed, * As _ _ the|night- * dew that falls * on the|grass * o'er his head,|
 A2 (fe)!<(! (dc)A!<)!"^rall."c |!>(! (dc)!>)!.c.B !fermata!A2 ||!>(! f>!>)!e | (dc)Ac (BA) F2 | %14
w: _ that * falls * on the|grass * o'er his head.|But the|night- * dew that falls, * the|
!<(! F2 F!<)!A!>(! (Bcd)!>)! z | z2 z!pp! d (c>d) BB | (B2 A4)!mp! (cd) |"^cresc." (fe)dc (fe)dc | %18
w: night- dew that falls, _ _|in si- * lence it|weeps, * Shall *|bright- * en with ver- * dure, shall|
 (de)ef (ed)cA |!f! (A2 d2-!>(! d) c2!>)! =B | A2 e>f (f _e2) e | (dc)BB (BA)cf | %22
w: bright- * en with ver- * dure the|grave _ _ where he|sleeps, And the tear, _ the|tear * that we shed, * though in|
 (f!>(!c)cA!>)! (Ac)cc |[M:2/4] (c B2!<(! A |[M:3/4] c!<)!B) (Bcde) |[M:4/4] e2 f"^rall."e (dc)BA | %26
w: se- * cret, in se- * cret it|rolls, _ _|_ _ Shall _ _ _|long keep his mem- * o- ry|
!>(! (B2!>)! A2) z2 (B2 | G2) A2 (F2 G2) | !fermata!A6 || %29
w: green, _ green|_ in our _|souls.|
V:4
 z2 | z4 z2 G,,D, | (B,,>C,) D,B,, F,4- | F,2 F,F,!<(! D,2 A,!<)!F, | %4
w: |Let it|sleep * in the shade,|_ Where un- hon- our'd his|
 (F,!>(!D,)C,D,"^’" A,,2!>)! z2 | z8 | F,2 A,,A,, B,,2!<(! D,!<)!D, |[M:3/4] G,2 z2 B,!>(!B, | %8
w: rel- * ics are laid||Si- lent the tears that we|shed, As the|
[M:4/4] (B,!>)!A,) C z/ A,/ (B,F,)G,D, | (G,D,) B,,>B,, F,2 F,>E, | %10
w: night- * dew that falls * on the|grass * o'er his head, As the|
 (D,C,)A,,C,!<(! (B,,A,,)D,!<)!"^rall."E, |!>(! F,2!>)! .A,,.B,, !fermata!F,,2 || z2 | %13
w: night- * dew that falls * on the|grass o'er his head,||
 z4 z2 D,A,, |!<(! (B,,C,)D,!<)!!>(!_E, (D,C,!>)!B,,) z | z4 z2!pp! D,D, | %16
w: But the|* night\-dew * that falls, _ _|tho' in|
 E,2 F,C, F,2!mp! (A,B,) |"^cresc." (A,C)B,A, D2 B,A, | (B,C)^CD (=CB,)A,F, | %19
w: si- lence it weeps, Shall *|bright- * en with ver- dure, shall|bright- * en with ver- * dure the|
!f! D,4!>(! E,2!>)! E,2 | A,2 _B,>A,!<(! G,2!<)! F,2 | (B,,C,) D,>=E, F,2 A,C | %22
w: grave where he|sleeps, And the tear, the|tear * that we shed, though in|
 (A,!>(!F,)E,D,!>)! (C,A,,)A,,A,, |[M:2/4] (B,,2!<(! D,2 |[M:3/4] G,,2)!<)! z2 B,2 | %25
w: se- * cret, in se- * cret it|rolls, _|_ Shall|
[M:4/4] (B,A,)F,"^rall."A, (B,F,)G,D, |!>(! (G,2!>)! D,2) z2 (F,2 | E,4) D,2 B,,2 | %28
w: long * keep his mem- * o- ry|green, _ green|_ in our|
 !fermata!F,,6 || %29
w: souls.|

